apps/spreadsheeteditor/main/resources/img/toolbar/2.5x/big/btn-sparkline.svg

<svg width="28" height="28" viewBox="0 0 28 28" fill="none" xmlns="http://www.w3.org/2000/svg">
<path fill-rule="evenodd" clip-rule="evenodd" d="M5 5H6V8L22 8V5H23V8H26V9H23V19H26V20H23V23H22V20L6 20V23H5V20H2V19H5V9H2V8H5V5ZM6 19L22 19V9L6 9V19ZM13.4585 10.7514L13.8536 11.1464L17.5 14.7929L20.1464 12.1464L20.8536 12.8536L17.8536 15.8536L17.5 16.2071L17.1464 15.8536L13.5415 12.2486L9.89043 16.8123L9.54146 17.2486L9.14645 16.8536L7.14645 14.8536L7.85355 14.1464L9.45854 15.7514L13.1096 11.1877L13.4585 10.7514Z" fill="black"/>
</svg>

<svg xmlns="http://www.w3.org/2000/svg" width="28" height="28" fill="none"><path fill="#000" d="m13.459 10.751 4.041 4.042 2.646-2.647.708.708-3.354 3.353-3.959-3.958-4 5-2.395-2.395.708-.708 1.605 1.605 4-5Z"/><path fill="#000" d="M5 5h1v3h16V5h1v3h3v1h-3v10h3v1h-3v3h-1v-3H6v3H5v-3H2v-1h3V9H2V8h3V5Zm1 14h16V9H6v10Z"/></svg>
